images/3234814.svg

<?xml version="1.0" encoding="UTF-8"?>
<svg xmlns="http://www.w3.org/2000/svg" xmlns:xlink="http://www.w3.org/1999/xlink" width="300pt" height="300pt" viewBox="0 0 300 300" version="1.1">
<defs>
<g>
<symbol overflow="visible" id="glyph0-0">
<path style="stroke:none;" d="M 0.453125 1.59375 L 0.453125 -6.34375 L 4.953125 -6.34375 L 4.953125 1.59375 Z M 0.953125 1.09375 L 4.453125 1.09375 L 4.453125 -5.84375 L 0.953125 -5.84375 Z M 0.953125 1.09375 "/>
</symbol>
<symbol overflow="visible" id="glyph0-1">
<path style="stroke:none;" d="M 0.890625 -6.5625 L 2.078125 -6.5625 L 4.984375 -1.078125 L 4.984375 -6.5625 L 5.84375 -6.5625 L 5.84375 0 L 4.65625 0 L 1.75 -5.484375 L 1.75 0 L 0.890625 0 Z M 0.890625 -6.5625 "/>
</symbol>
<symbol overflow="visible" id="glyph0-2">
<path style="stroke:none;" d="M 3.546875 -5.953125 C 2.898438 -5.953125 2.382812 -5.710938 2 -5.234375 C 1.625 -4.753906 1.4375 -4.101562 1.4375 -3.28125 C 1.4375 -2.445312 1.625 -1.789062 2 -1.3125 C 2.382812 -0.832031 2.898438 -0.59375 3.546875 -0.59375 C 4.191406 -0.59375 4.703125 -0.832031 5.078125 -1.3125 C 5.453125 -1.789062 5.640625 -2.445312 5.640625 -3.28125 C 5.640625 -4.101562 5.453125 -4.753906 5.078125 -5.234375 C 4.703125 -5.710938 4.191406 -5.953125 3.546875 -5.953125 Z M 3.546875 -6.6875 C 4.460938 -6.6875 5.195312 -6.375 5.75 -5.75 C 6.300781 -5.132812 6.578125 -4.3125 6.578125 -3.28125 C 6.578125 -2.238281 6.300781 -1.410156 5.75 -0.796875 C 5.195312 -0.179688 4.460938 0.125 3.546875 0.125 C 2.617188 0.125 1.878906 -0.179688 1.328125 -0.796875 C 0.773438 -1.410156 0.5 -2.238281 0.5 -3.28125 C 0.5 -4.3125 0.773438 -5.132812 1.328125 -5.75 C 1.878906 -6.375 2.617188 -6.6875 3.546875 -6.6875 Z M 3.546875 -6.6875 "/>
</symbol>
</g>
</defs>
<g id="surface37477">
<rect x="0" y="0" width="300" height="300" style="fill:rgb(100%,100%,100%);fill-opacity:1;stroke:none;"/>
<path style="fill:none;stroke-width:1.2;stroke-linecap:butt;stroke-linejoin:miter;stroke:rgb(0%,0%,0%);stroke-opacity:1;stroke-miterlimit:10;" d="M 152.664062 177.761719 L 129.089844 182.121094 "/>
<path style="fill:none;stroke-width:1.2;stroke-linecap:butt;stroke-linejoin:miter;stroke:rgb(0%,0%,0%);stroke-opacity:1;stroke-miterlimit:10;" d="M 160.679688 155.164062 L 152.664062 177.761719 "/>
<path style="fill:none;stroke-width:1.2;stroke-linecap:butt;stroke-linejoin:miter;stroke:rgb(0%,0%,0%);stroke-opacity:1;stroke-miterlimit:10;" d="M 129.089844 182.121094 L 121.308594 173 "/>
<path style="fill:none;stroke-width:1.2;stroke-linecap:butt;stroke-linejoin:miter;stroke:rgb(0%,0%,100%);stroke-opacity:1;stroke-miterlimit:10;" d="M 121.308594 173 L 113.527344 163.878906 "/>
<path style="fill:none;stroke-width:1.2;stroke-linecap:butt;stroke-linejoin:miter;stroke:rgb(0%,0%,100%);stroke-opacity:1;stroke-miterlimit:10;" d="M 113.527344 163.878906 L 117.535156 152.582031 "/>
<path style="fill:none;stroke-width:1.2;stroke-linecap:butt;stroke-linejoin:miter;stroke:rgb(0%,0%,0%);stroke-opacity:1;stroke-miterlimit:10;" d="M 117.535156 152.582031 L 121.539062 141.285156 "/>
<path style="fill:none;stroke-width:1.2;stroke-linecap:butt;stroke-linejoin:miter;stroke:rgb(0%,0%,100%);stroke-opacity:1;stroke-miterlimit:10;" d="M 113.527344 163.878906 L 101.738281 166.058594 "/>
<path style="fill:none;stroke-width:1.2;stroke-linecap:butt;stroke-linejoin:miter;stroke:rgb(0%,0%,0%);stroke-opacity:1;stroke-miterlimit:10;" d="M 101.738281 166.058594 L 89.949219 168.238281 "/>
<path style=" stroke:none;fill-rule:nonzero;fill:rgb(100%,100%,100%);fill-opacity:1;" d="M 110.527344 158.378906 L 117.527344 158.378906 L 117.527344 169.378906 L 110.527344 169.378906 Z M 110.527344 158.378906 "/>
<g style="fill:rgb(0%,0%,100%);fill-opacity:1;">
  <use xlink:href="#glyph0-1" x="110.527344" y="167.041992"/>
</g>
<path style="fill:none;stroke-width:1.2;stroke-linecap:butt;stroke-linejoin:miter;stroke:rgb(0%,0%,0%);stroke-opacity:1;stroke-miterlimit:10;" d="M 121.539062 141.285156 L 145.117188 136.925781 "/>
<path style="fill:none;stroke-width:1.2;stroke-linecap:butt;stroke-linejoin:miter;stroke:rgb(0%,0%,0%);stroke-opacity:1;stroke-miterlimit:10;" d="M 145.117188 136.925781 L 160.679688 155.164062 "/>
<path style="fill:none;stroke-width:1.2;stroke-linecap:butt;stroke-linejoin:miter;stroke:rgb(0%,0%,0%);stroke-opacity:1;stroke-miterlimit:10;" d="M 160.679688 155.164062 L 180.433594 168.753906 "/>
<path style="fill:none;stroke-width:1.2;stroke-linecap:butt;stroke-linejoin:miter;stroke:rgb(0%,0%,0%);stroke-opacity:1;stroke-miterlimit:10;" d="M 174.269531 135.414062 L 160.679688 155.164062 "/>
<path style="fill:none;stroke-width:1.2;stroke-linecap:butt;stroke-linejoin:miter;stroke:rgb(0%,0%,0%);stroke-opacity:1;stroke-miterlimit:10;" d="M 180.433594 168.753906 L 187.226562 158.878906 "/>
<path style="fill:none;stroke-width:1.2;stroke-linecap:butt;stroke-linejoin:miter;stroke:rgb(0%,0%,100%);stroke-opacity:1;stroke-miterlimit:10;" d="M 187.226562 158.878906 L 194.019531 149 "/>
<path style="fill:none;stroke-width:1.2;stroke-linecap:butt;stroke-linejoin:miter;stroke:rgb(0%,0%,100%);stroke-opacity:1;stroke-miterlimit:10;" d="M 194.019531 149 L 184.144531 142.207031 "/>
<path style="fill:none;stroke-width:1.2;stroke-linecap:butt;stroke-linejoin:miter;stroke:rgb(0%,0%,0%);stroke-opacity:1;stroke-miterlimit:10;" d="M 184.144531 142.207031 L 174.269531 135.414062 "/>
<path style="fill:none;stroke-width:1.2;stroke-linecap:butt;stroke-linejoin:miter;stroke:rgb(0%,0%,100%);stroke-opacity:1;stroke-miterlimit:10;" d="M 194.019531 149 L 205.808594 146.824219 "/>
<path style="fill:none;stroke-width:1.2;stroke-linecap:butt;stroke-linejoin:miter;stroke:rgb(0%,0%,0%);stroke-opacity:1;stroke-miterlimit:10;" d="M 205.808594 146.824219 L 217.597656 144.644531 "/>
<path style=" stroke:none;fill-rule:nonzero;fill:rgb(100%,100%,100%);fill-opacity:1;" d="M 191.019531 143.5 L 198.019531 143.5 L 198.019531 154.5 L 191.019531 154.5 Z M 191.019531 143.5 "/>
<g style="fill:rgb(0%,0%,100%);fill-opacity:1;">
  <use xlink:href="#glyph0-1" x="191.019531" y="152.163086"/>
</g>
<path style="fill:none;stroke-width:1.2;stroke-linecap:butt;stroke-linejoin:miter;stroke:rgb(0%,0%,0%);stroke-opacity:1;stroke-miterlimit:10;" d="M 217.597656 144.644531 L 233.160156 162.882812 "/>
<path style="fill:none;stroke-width:1.2;stroke-linecap:butt;stroke-linejoin:miter;stroke:rgb(0%,0%,0%);stroke-opacity:1;stroke-miterlimit:10;" d="M 223.445312 142.804688 L 235.894531 157.398438 "/>
<path style="fill:none;stroke-width:1.2;stroke-linecap:butt;stroke-linejoin:miter;stroke:rgb(0%,0%,100%);stroke-opacity:1;stroke-miterlimit:10;" d="M 225.613281 122.046875 L 221.605469 133.34375 "/>
<path style="fill:none;stroke-width:1.2;stroke-linecap:butt;stroke-linejoin:miter;stroke:rgb(0%,0%,0%);stroke-opacity:1;stroke-miterlimit:10;" d="M 221.605469 133.34375 L 217.597656 144.644531 "/>
<path style="fill:none;stroke-width:1.2;stroke-linecap:butt;stroke-linejoin:miter;stroke:rgb(0%,0%,0%);stroke-opacity:1;stroke-miterlimit:10;" d="M 233.160156 162.882812 L 256.734375 158.523438 "/>
<path style="fill:none;stroke-width:1.2;stroke-linecap:butt;stroke-linejoin:miter;stroke:rgb(0%,0%,0%);stroke-opacity:1;stroke-miterlimit:10;" d="M 256.734375 158.523438 L 264.75 135.925781 "/>
<path style="fill:none;stroke-width:1.2;stroke-linecap:butt;stroke-linejoin:miter;stroke:rgb(0%,0%,0%);stroke-opacity:1;stroke-miterlimit:10;" d="M 252.21875 154.378906 L 258.632812 136.300781 "/>
<path style="fill:none;stroke-width:1.2;stroke-linecap:butt;stroke-linejoin:miter;stroke:rgb(0%,0%,0%);stroke-opacity:1;stroke-miterlimit:10;" d="M 264.75 135.925781 L 249.1875 117.6875 "/>
<path style="fill:none;stroke-width:1.2;stroke-linecap:butt;stroke-linejoin:miter;stroke:rgb(0%,0%,0%);stroke-opacity:1;stroke-miterlimit:10;" d="M 249.1875 117.6875 L 237.398438 119.867188 "/>
<path style="fill:none;stroke-width:1.2;stroke-linecap:butt;stroke-linejoin:miter;stroke:rgb(0%,0%,100%);stroke-opacity:1;stroke-miterlimit:10;" d="M 237.398438 119.867188 L 225.613281 122.046875 "/>
<path style="fill:none;stroke-width:1.2;stroke-linecap:butt;stroke-linejoin:miter;stroke:rgb(0%,0%,0%);stroke-opacity:1;stroke-miterlimit:10;" d="M 247.855469 123.671875 L 238.425781 125.414062 "/>
<path style="fill:none;stroke-width:1.2;stroke-linecap:butt;stroke-linejoin:miter;stroke:rgb(0%,0%,100%);stroke-opacity:1;stroke-miterlimit:10;" d="M 238.425781 125.414062 L 228.996094 127.160156 "/>
<path style=" stroke:none;fill-rule:nonzero;fill:rgb(100%,100%,100%);fill-opacity:1;" d="M 222.613281 116.546875 L 229.613281 116.546875 L 229.613281 127.546875 L 222.613281 127.546875 Z M 222.613281 116.546875 "/>
<g style="fill:rgb(0%,0%,100%);fill-opacity:1;">
  <use xlink:href="#glyph0-1" x="222.613281" y="125.209961"/>
</g>
<path style="fill:none;stroke-width:1.2;stroke-linecap:butt;stroke-linejoin:miter;stroke:rgb(0%,0%,0%);stroke-opacity:1;stroke-miterlimit:10;" d="M 87.292969 167.296875 L 83.285156 178.59375 "/>
<path style="fill:none;stroke-width:1.2;stroke-linecap:butt;stroke-linejoin:miter;stroke:rgb(100%,0%,0%);stroke-opacity:1;stroke-miterlimit:10;" d="M 83.285156 178.59375 L 79.277344 189.890625 "/>
<path style="fill:none;stroke-width:1.2;stroke-linecap:butt;stroke-linejoin:miter;stroke:rgb(0%,0%,0%);stroke-opacity:1;stroke-miterlimit:10;" d="M 92.609375 169.179688 L 88.601562 180.480469 "/>
<path style="fill:none;stroke-width:1.2;stroke-linecap:butt;stroke-linejoin:miter;stroke:rgb(100%,0%,0%);stroke-opacity:1;stroke-miterlimit:10;" d="M 88.601562 180.480469 L 84.59375 191.777344 "/>
<path style="fill:none;stroke-width:1.2;stroke-linecap:butt;stroke-linejoin:miter;stroke:rgb(0%,0%,0%);stroke-opacity:1;stroke-miterlimit:10;" d="M 89.949219 168.238281 L 74.386719 150 "/>
<path style=" stroke:none;fill-rule:nonzero;fill:rgb(100%,100%,100%);fill-opacity:1;" d="M 73.9375 185.335938 L 81.9375 185.335938 L 81.9375 196.335938 L 73.9375 196.335938 Z M 73.9375 185.335938 "/>
<g style="fill:rgb(100%,0%,0%);fill-opacity:1;">
  <use xlink:href="#glyph0-2" x="73.9375" y="193.999023"/>
</g>
<path style="fill:none;stroke-width:1.2;stroke-linecap:butt;stroke-linejoin:miter;stroke:rgb(0%,0%,0%);stroke-opacity:1;stroke-miterlimit:10;" d="M 74.386719 150 L 78.394531 138.703125 "/>
<path style="fill:none;stroke-width:1.2;stroke-linecap:butt;stroke-linejoin:miter;stroke:rgb(0%,0%,100%);stroke-opacity:1;stroke-miterlimit:10;" d="M 78.394531 138.703125 L 82.402344 127.402344 "/>
<path style="fill:none;stroke-width:1.2;stroke-linecap:butt;stroke-linejoin:miter;stroke:rgb(0%,0%,0%);stroke-opacity:1;stroke-miterlimit:10;" d="M 69.871094 145.855469 L 73.078125 136.816406 "/>
<path style="fill:none;stroke-width:1.2;stroke-linecap:butt;stroke-linejoin:miter;stroke:rgb(0%,0%,100%);stroke-opacity:1;stroke-miterlimit:10;" d="M 73.078125 136.816406 L 76.285156 127.777344 "/>
<path style="fill:none;stroke-width:1.2;stroke-linecap:butt;stroke-linejoin:miter;stroke:rgb(0%,0%,0%);stroke-opacity:1;stroke-miterlimit:10;" d="M 50.8125 154.359375 L 74.386719 150 "/>
<path style="fill:none;stroke-width:1.2;stroke-linecap:butt;stroke-linejoin:miter;stroke:rgb(0%,0%,100%);stroke-opacity:1;stroke-miterlimit:10;" d="M 82.402344 127.402344 L 74.621094 118.285156 "/>
<path style="fill:none;stroke-width:1.2;stroke-linecap:butt;stroke-linejoin:miter;stroke:rgb(0%,0%,0%);stroke-opacity:1;stroke-miterlimit:10;" d="M 74.621094 118.285156 L 66.839844 109.164062 "/>
<path style=" stroke:none;fill-rule:nonzero;fill:rgb(100%,100%,100%);fill-opacity:1;" d="M 79.402344 121.902344 L 86.402344 121.902344 L 86.402344 132.902344 L 79.402344 132.902344 Z M 79.402344 121.902344 "/>
<g style="fill:rgb(0%,0%,100%);fill-opacity:1;">
  <use xlink:href="#glyph0-1" x="79.402344" y="130.56543"/>
</g>
<path style="fill:none;stroke-width:1.2;stroke-linecap:butt;stroke-linejoin:miter;stroke:rgb(0%,0%,0%);stroke-opacity:1;stroke-miterlimit:10;" d="M 66.839844 109.164062 L 43.265625 113.523438 "/>
<path style="fill:none;stroke-width:1.2;stroke-linecap:butt;stroke-linejoin:miter;stroke:rgb(0%,0%,0%);stroke-opacity:1;stroke-miterlimit:10;" d="M 65.507812 115.148438 L 46.648438 118.632812 "/>
<path style="fill:none;stroke-width:1.2;stroke-linecap:butt;stroke-linejoin:miter;stroke:rgb(0%,0%,0%);stroke-opacity:1;stroke-miterlimit:10;" d="M 43.265625 113.523438 L 39.257812 124.820312 "/>
<path style="fill:none;stroke-width:1.2;stroke-linecap:butt;stroke-linejoin:miter;stroke:rgb(0%,0%,100%);stroke-opacity:1;stroke-miterlimit:10;" d="M 39.257812 124.820312 L 35.25 136.121094 "/>
<path style="fill:none;stroke-width:1.2;stroke-linecap:butt;stroke-linejoin:miter;stroke:rgb(0%,0%,100%);stroke-opacity:1;stroke-miterlimit:10;" d="M 35.25 136.121094 L 43.03125 145.238281 "/>
<path style="fill:none;stroke-width:1.2;stroke-linecap:butt;stroke-linejoin:miter;stroke:rgb(0%,0%,0%);stroke-opacity:1;stroke-miterlimit:10;" d="M 43.03125 145.238281 L 50.8125 154.359375 "/>
<path style="fill:none;stroke-width:1.2;stroke-linecap:butt;stroke-linejoin:miter;stroke:rgb(0%,0%,100%);stroke-opacity:1;stroke-miterlimit:10;" d="M 41.097656 134.28125 L 47.324219 141.578125 "/>
<path style="fill:none;stroke-width:1.2;stroke-linecap:butt;stroke-linejoin:miter;stroke:rgb(0%,0%,0%);stroke-opacity:1;stroke-miterlimit:10;" d="M 47.324219 141.578125 L 53.546875 148.871094 "/>
<path style=" stroke:none;fill-rule:nonzero;fill:rgb(100%,100%,100%);fill-opacity:1;" d="M 32.25 130.621094 L 39.25 130.621094 L 39.25 141.621094 L 32.25 141.621094 Z M 32.25 130.621094 "/>
<g style="fill:rgb(0%,0%,100%);fill-opacity:1;">
  <use xlink:href="#glyph0-1" x="32.25" y="139.28418"/>
</g>
</g>
</svg>

<svg xmlns="http://www.w3.org/2000/svg" xmlns:xlink="http://www.w3.org/1999/xlink" width="300pt" height="300pt" viewBox="0 0 300 300"><defs><symbol overflow="visible"><path d="M.453 1.594v-7.938h4.5v7.938zm.5-.5h3.5v-6.938h-3.5zm0 0"/></symbol><symbol overflow="visible" id="a"><path d="M.89-6.563H2.08l2.906 5.485v-5.484h.86V0H4.656L1.75-5.484V0H.89zm0 0"/></symbol><symbol overflow="visible" id="b"><path d="M3.547-5.953c-.65 0-1.164.242-1.547.72-.375.48-.563 1.13-.563 1.952 0 .835.188 1.49.563 1.967.383.48.898.72 1.547.72.644 0 1.156-.24 1.53-.72.376-.476.564-1.132.564-1.968 0-.822-.187-1.474-.562-1.954-.375-.477-.887-.72-1.53-.72zm0-.734c.914 0 1.648.312 2.203.937.55.617.828 1.438.828 2.47 0 1.042-.277 1.87-.828 2.483-.555.617-1.29.922-2.203.922-.93 0-1.668-.305-2.22-.922C.774-1.41.5-2.237.5-3.28c0-1.033.273-1.853.828-2.47.55-.625 1.29-.938 2.22-.938zm0 0"/></symbol></defs><g><path fill="#fff" d="M0 0h300v300H0z"/><path d="M152.664 177.762l-23.574 4.36M160.68 155.164l-8.016 22.598M129.09 182.12l-7.78-9.12" stroke-width="1.2" stroke="#000" stroke-miterlimit="10" fill="none"/><path d="M121.31 173l-7.783-9.12M113.527 163.88l4.008-11.298" stroke-width="1.2" stroke="#00f" stroke-miterlimit="10" fill="none"/><path d="M117.535 152.582l4.004-11.297" stroke-width="1.2" stroke="#000" stroke-miterlimit="10" fill="none"/><path d="M113.527 163.88l-11.79 2.18" stroke-width="1.2" stroke="#00f" stroke-miterlimit="10" fill="none"/><path d="M101.738 166.06l-11.79 2.178" stroke-width="1.2" stroke="#000" stroke-miterlimit="10" fill="none"/><path d="M110.527 158.38h7v11h-7zm0 0" fill="#fff"/><use xlink:href="#a" x="110.527" y="167.042" fill="#00f"/><path d="M121.54 141.285l23.577-4.36M145.117 136.926l15.563 18.238M160.68 155.164l19.754 13.59M174.27 135.414l-13.59 19.75M180.434 168.754l6.793-9.875" stroke-width="1.2" stroke="#000" stroke-miterlimit="10" fill="none"/><path d="M187.227 158.88l6.793-9.88M194.02 149l-9.875-6.793" stroke-width="1.2" stroke="#00f" stroke-miterlimit="10" fill="none"/><path d="M184.145 142.207l-9.875-6.793" stroke-width="1.2" stroke="#000" stroke-miterlimit="10" fill="none"/><path d="M194.02 149l11.79-2.176" stroke-width="1.2" stroke="#00f" stroke-miterlimit="10" fill="none"/><path d="M205.81 146.824l11.788-2.18" stroke-width="1.2" stroke="#000" stroke-miterlimit="10" fill="none"/><path d="M191.02 143.5h7v11h-7zm0 0" fill="#fff"/><use xlink:href="#a" x="191.02" y="152.163" fill="#00f"/><path d="M217.598 144.645l15.562 18.238M223.445 142.805l12.45 14.593" stroke-width="1.2" stroke="#000" stroke-miterlimit="10" fill="none"/><path d="M225.613 122.047l-4.008 11.297" stroke-width="1.2" stroke="#00f" stroke-miterlimit="10" fill="none"/><path d="M221.605 133.344l-4.007 11.3M233.16 162.883l23.574-4.36M256.734 158.523l8.016-22.597M252.22 154.38l6.413-18.08M264.75 135.926l-15.563-18.238M249.188 117.688l-11.79 2.18" stroke-width="1.2" stroke="#000" stroke-miterlimit="10" fill="none"/><path d="M237.398 119.867l-11.785 2.18" stroke-width="1.2" stroke="#00f" stroke-miterlimit="10" fill="none"/><path d="M247.855 123.672l-9.43 1.742" stroke-width="1.2" stroke="#000" stroke-miterlimit="10" fill="none"/><path d="M238.426 125.414l-9.43 1.746" stroke-width="1.2" stroke="#00f" stroke-miterlimit="10" fill="none"/><path d="M222.613 116.547h7v11h-7zm0 0" fill="#fff"/><use xlink:href="#a" x="222.613" y="125.21" fill="#00f"/><path d="M87.293 167.297l-4.008 11.297" stroke-width="1.2" stroke="#000" stroke-miterlimit="10" fill="none"/><path d="M83.285 178.594l-4.008 11.297" stroke-width="1.2" stroke="#f00" stroke-miterlimit="10" fill="none"/><path d="M92.61 169.18l-4.008 11.3" stroke-width="1.2" stroke="#000" stroke-miterlimit="10" fill="none"/><path d="M88.602 180.48l-4.008 11.297" stroke-width="1.2" stroke="#f00" stroke-miterlimit="10" fill="none"/><path d="M89.95 168.238L74.386 150" stroke-width="1.2" stroke="#000" stroke-miterlimit="10" fill="none"/><path d="M73.938 185.336h8v11h-8zm0 0" fill="#fff"/><use xlink:href="#b" x="73.938" y="193.999" fill="#f00"/><path d="M74.387 150l4.008-11.297" stroke-width="1.2" stroke="#000" stroke-miterlimit="10" fill="none"/><path d="M78.395 138.703l4.007-11.3" stroke-width="1.2" stroke="#00f" stroke-miterlimit="10" fill="none"/><path d="M69.87 145.855l3.208-9.04" stroke-width="1.2" stroke="#000" stroke-miterlimit="10" fill="none"/><path d="M73.078 136.816l3.207-9.04" stroke-width="1.2" stroke="#00f" stroke-miterlimit="10" fill="none"/><path d="M50.813 154.36L74.386 150" stroke-width="1.2" stroke="#000" stroke-miterlimit="10" fill="none"/><path d="M82.402 127.402l-7.78-9.117" stroke-width="1.2" stroke="#00f" stroke-miterlimit="10" fill="none"/><path d="M74.62 118.285l-7.78-9.12" stroke-width="1.2" stroke="#000" stroke-miterlimit="10" fill="none"/><path d="M79.402 121.902h7v11h-7zm0 0" fill="#fff"/><use xlink:href="#a" x="79.402" y="130.565" fill="#00f"/><path d="M66.84 109.164l-23.574 4.36M65.508 115.148l-18.86 3.485M43.266 113.523l-4.008 11.297" stroke-width="1.2" stroke="#000" stroke-miterlimit="10" fill="none"/><path d="M39.258 124.82l-4.008 11.3M35.25 136.12l7.78 9.118" stroke-width="1.2" stroke="#00f" stroke-miterlimit="10" fill="none"/><path d="M43.03 145.238l7.782 9.12" stroke-width="1.2" stroke="#000" stroke-miterlimit="10" fill="none"/><path d="M41.098 134.28l6.226 7.298" stroke-width="1.2" stroke="#00f" stroke-miterlimit="10" fill="none"/><path d="M47.324 141.578l6.223 7.293" stroke-width="1.2" stroke="#000" stroke-miterlimit="10" fill="none"/><path d="M32.25 130.62h7v11h-7zm0 0" fill="#fff"/><use xlink:href="#a" x="32.25" y="139.284" fill="#00f"/></g></svg>
